X:1
T: Jim Barrie
C:
R:Reel
Q: 232
K:D
M:4/4
L:1/8
|:A|d2 A2 A2 Bd|f2 ef d2 A2|B2 e2 e2 fg|f2 ed B2 AB|
d2 A2 A2 Bd|f2 ef a2 A2|B2 AG A2 BG|1A2 d2 d2 A2:|2A2 d2 d2 g2|
|:f2 ed f2 a2|f2 ed B2 d2|A3B G2 B2|A2 d2 e2 g2|
f2 ed f2 a2|f2 ef a2 A2|B2 AG A2 BG|1A2 d2 d2 g2:|2A2 d2 d2||
